X: 14327
T: Gallic Christmas Song
R: barndance
M: 4/4
K: Aminor
A2|e3 e Bc d2|d2 A2 A2 3 c2 c2|B3 c A2||
A2|e3 e Bc d2|d2 AB c3 d|c2 B2 A4|
A2 B3 B A2|B2 c2 B2 c2|d3 c B2 A2|A2 B6|
A2 B2 B2 A2|B2 c2 B2 c2|e2 d3 c B2 HA2||

